P3
# Genesis Editor camera icon (8x8), magenta background is transparent key
8 8
255
255 0 255 255 0 255 255 0 255 255 0 255 255 0 255 255 0 255 255 0 255 255 0 255
255 0 255 255 0 255 255 255 255 255 255 255 255 255 255 255 255 255 255 0 255 255 0 255
255 0 255 255 255 255 255 255 255 255 255 255 255 255 255 255 255 255 255 255 255 255 0 255
255 0 255 255 255 255 255 255 255 255 0 255 255 0 255 255 255 255 255 255 255 255 0 255
255 0 255 255 255 255 255 255 255 255 0 255 255 0 255 255 255 255 255 255 255 255 0 255
255 0 255 255 255 255 255 255 255 255 255 255 255 255 255 255 255 255 255 255 255 255 0 255
255 0 255 255 0 255 255 255 255 255 255 255 255 255 255 255 255 255 255 0 255 255 0 255
255 0 255 255 0 255 255 0 255 255 0 255 255 0 255 255 0 255 255 0 255 255 0 255